assets/images/svg/wordpress-icon.svg

<?xml version="1.0" encoding="UTF-8" standalone="no" ?>
<svg width="256px" height="255px" viewBox="0 0 256 255" version="1.1" xmlns="http://www.w3.org/2000/svg" xmlns:xlink="http://www.w3.org/1999/xlink" preserveAspectRatio="xMidYMid">
    <g fill="#464342">
        <path d="M18.1239675,127.500488 C18.1239675,170.795707 43.284813,208.211252 79.7700163,225.941854 L27.5938862,82.985626 C21.524813,96.5890081 18.1239675,111.643057 18.1239675,127.500488 L18.1239675,127.500488 Z M201.345041,121.980878 C201.345041,108.462829 196.489366,99.1011382 192.324683,91.8145041 C186.780098,82.8045528 181.583089,75.1745041 181.583089,66.1645528 C181.583089,56.1097886 189.208976,46.7501789 199.950569,46.7501789 C200.435512,46.7501789 200.89548,46.8105366 201.367935,46.8375935 C181.907772,29.0091707 155.981008,18.1239675 127.50465,18.1239675 C89.2919675,18.1239675 55.6727154,37.7298211 36.1147317,67.4258211 C38.6809756,67.5028293 41.0994472,67.5569431 43.1536911,67.5569431 C54.5946016,67.5569431 72.3043902,66.1687154 72.3043902,66.1687154 C78.2007154,65.8211382 78.8958699,74.4814309 73.0057886,75.1786667 C73.0057886,75.1786667 67.0803252,75.8759024 60.4867642,76.2213984 L100.318699,194.699447 L124.25574,122.909138 L107.214049,76.2172358 C101.323967,75.8717398 95.744,75.1745041 95.744,75.1745041 C89.8497561,74.8290081 90.540748,65.8169756 96.4349919,66.1645528 C96.4349919,66.1645528 114.498602,67.5527805 125.246439,67.5527805 C136.685268,67.5527805 154.397138,66.1645528 154.397138,66.1645528 C160.297626,65.8169756 160.990699,74.4772683 155.098537,75.1745041 C155.098537,75.1745041 149.160585,75.8717398 142.579512,76.2172358 L182.107577,193.798244 L193.017756,157.340098 C197.746472,142.211122 201.345041,131.34465 201.345041,121.980878 L201.345041,121.980878 Z M129.42361,137.068228 L96.6056585,232.43135 C106.404423,235.31187 116.76722,236.887415 127.50465,236.887415 C140.242211,236.887415 152.457366,234.685398 163.827512,230.68722 C163.534049,230.218927 163.267642,229.721496 163.049106,229.180358 L129.42361,137.068228 L129.42361,137.068228 Z M223.481756,75.0225691 C223.95213,78.5066667 224.218537,82.2467642 224.218537,86.2699187 C224.218537,97.3694959 222.145561,109.846894 215.901659,125.448325 L182.490537,222.04774 C215.00878,203.085008 236.881171,167.854829 236.881171,127.502569 C236.883252,108.485724 232.025496,90.603187 223.481756,75.0225691 L223.481756,75.0225691 Z M127.50465,0 C57.2003902,0 0,57.1962276 0,127.500488 C0,197.813073 57.2003902,255.00722 127.50465,255.00722 C197.806829,255.00722 255.015545,197.813073 255.015545,127.500488 C255.013463,57.1962276 197.806829,0 127.50465,0 L127.50465,0 Z M127.50465,249.162927 C60.4243252,249.162927 5.84637398,194.584976 5.84637398,127.500488 C5.84637398,60.4201626 60.4222439,5.84637398 127.50465,5.84637398 C194.582894,5.84637398 249.156683,60.4201626 249.156683,127.500488 C249.156683,194.584976 194.582894,249.162927 127.50465,249.162927 L127.50465,249.162927 Z"></path>
    </g>
</svg>

<svg width="256" height="255" viewBox="0 0 256 255" xmlns="http://www.w3.org/2000/svg" preserveAspectRatio="xMidYMid"><path d="M18.124 127.5c0 43.296 25.16 80.71 61.646 98.442L27.594 82.986c-6.07 13.603-9.47 28.657-9.47 44.514zm183.22-5.52c0-13.517-4.855-22.88-9.02-30.165-5.544-9.01-10.74-16.64-10.74-25.65 0-10.055 7.625-19.415 18.367-19.415.486 0 .945.06 1.418.088-19.46-17.83-45.387-28.714-73.863-28.714-38.213 0-71.832 19.606-91.39 49.302 2.566.077 4.984.13 7.04.13 11.44 0 29.15-1.387 29.15-1.387 5.896-.35 6.59 8.31.7 9.01 0 0-5.925.696-12.518 1.04L100.32 194.7l23.936-71.79-17.042-46.693c-5.89-.345-11.47-1.042-11.47-1.042-5.894-.346-5.203-9.358.69-9.01 0 0 18.065 1.388 28.812 1.388 11.44 0 29.15-1.388 29.15-1.388 5.902-.348 6.595 8.312.703 9.01 0 0-5.94.697-12.52 1.042l39.528 117.58 10.91-36.457c4.728-15.13 8.327-25.995 8.327-35.36zm-71.92 15.088L96.606 232.43c9.798 2.882 20.16 4.457 30.9 4.457 12.736 0 24.95-2.202 36.322-6.2-.294-.468-.56-.966-.78-1.507l-33.624-92.112zm94.058-62.045c.47 3.484.737 7.224.737 11.247 0 11.1-2.074 23.577-8.318 39.178l-33.41 96.6c32.517-18.963 54.39-54.193 54.39-94.545 0-19.017-4.857-36.9-13.4-52.48zM127.505 0C57.2 0 0 57.196 0 127.5c0 70.313 57.2 127.507 127.505 127.507 70.302 0 127.51-57.194 127.51-127.507C255.014 57.196 197.808 0 127.506 0zm0 249.163c-67.08 0-121.66-54.578-121.66-121.663 0-67.08 54.577-121.654 121.66-121.654 67.078 0 121.652 54.574 121.652 121.654 0 67.085-54.574 121.663-121.652 121.663z" fill="#464342"/></svg>
